austria/municipalities/70825.svg

<?xml version="1.0" encoding="UTF-8"?>
<!DOCTYPE svg PUBLIC "-//W3C//DTD SVG 1.1//EN" "http://www.w3.org/Graphics/SVG/1.1/DTD/svg11.dtd">
<svg xmlns="http://www.w3.org/2000/svg" version="1.1" width="166px" height="192px" style="shape-rendering:geometricPrecision; text-rendering:geometricPrecision; image-rendering:optimizeQuality; fill-rule:evenodd; clip-rule:evenodd" xmlns:xlink="http://www.w3.org/1999/xlink">
<g><path style="opacity:1" fill="#060805" d="M -0.5,-0.5 C 54.8333,-0.5 110.167,-0.5 165.5,-0.5C 165.5,39.5 165.5,79.5 165.5,119.5C 157.038,159.629 132.705,183.629 92.5,191.5C 85.5,191.5 78.5,191.5 71.5,191.5C 30.9271,182.927 6.9271,158.261 -0.5,117.5C -0.5,78.1667 -0.5,38.8333 -0.5,-0.5 Z"/></g>
<g><path style="opacity:1" fill="#185b2a" d="M 3.5,3.5 C 56.1667,3.5 108.833,3.5 161.5,3.5C 161.667,41.8348 161.5,80.1681 161,118.5C 155.455,152.413 136.288,174.579 103.5,185C 60.1658,193.082 28.6658,177.582 9,138.5C 6.44097,131.372 4.7743,124.038 4,116.5C 3.50001,78.8348 3.33335,41.1681 3.5,3.5 Z"/></g>
<g><path style="opacity:1" fill="#e0a01d" d="M 85.5,35.5 C 88.2749,38.6046 91.6082,40.9379 95.5,42.5C 97.1475,44.3264 99.1475,45.6597 101.5,46.5C 104.952,49.731 108.619,52.731 112.5,55.5C 112.167,55.8333 111.833,56.1667 111.5,56.5C 109.228,55.5589 107.228,54.2255 105.5,52.5C 105.167,52.8333 104.833,53.1667 104.5,53.5C 108.712,57.6973 108.045,60.8639 102.5,63C 103.044,63.7172 103.711,64.2172 104.5,64.5C 104.328,65.4916 104.662,66.1583 105.5,66.5C 105.266,70.233 103.266,72.0663 99.5,72C 103.424,75.1816 103.424,78.1816 99.5,81C 88.1667,81.6667 76.8333,81.6667 65.5,81C 64.4734,80.4867 63.4734,79.9867 62.5,79.5C 62.3253,77.3792 62.6586,75.3792 63.5,73.5C 64.2891,73.2172 64.9558,72.7172 65.5,72C 60.9754,71.6177 59.3087,69.1177 60.5,64.5C 62.9327,63.4523 62.9327,62.7856 60.5,62.5C 60.1583,61.6618 59.4916,61.3284 58.5,61.5C 58.3225,60.3052 57.9891,59.1385 57.5,58C 58.9266,56.2998 59.76,54.4665 60,52.5C 57.9656,54.0316 55.7989,55.3649 53.5,56.5C 52.7025,56.0431 52.3691,55.3764 52.5,54.5C 62.483,48.5057 72.1497,42.0057 81.5,35C 82.8193,34.805 84.1526,34.9717 85.5,35.5 Z"/></g>
<g><path style="opacity:1" fill="#1b1f12" d="M 85.5,35.5 C 89.3918,37.0621 92.7251,39.3954 95.5,42.5C 91.6082,40.9379 88.2749,38.6046 85.5,35.5 Z"/></g>
<g><path style="opacity:1" fill="#1c1e11" d="M 67.5,55.5 C 66.596,54.791 66.2627,53.791 66.5,52.5C 77.5,52.5 88.5,52.5 99.5,52.5C 99.67,53.8221 99.3366,54.9887 98.5,56C 87.9917,56.8252 77.6584,56.6585 67.5,55.5 Z"/></g>
<g><path style="opacity:1" fill="#1a1c11" d="M 58.5,61.5 C 56.9328,60.3192 56.0995,58.6526 56,56.5C 53.5081,59.1906 51.6748,58.6906 50.5,55C 51.0944,54.5357 51.7611,54.369 52.5,54.5C 52.3691,55.3764 52.7025,56.0431 53.5,56.5C 55.7989,55.3649 57.9656,54.0316 60,52.5C 59.76,54.4665 58.9266,56.2998 57.5,58C 57.9891,59.1385 58.3225,60.3052 58.5,61.5 Z"/></g>
<g><path style="opacity:1" fill="#174120" d="M 67.5,55.5 C 72.2876,54.1721 77.4543,53.5054 83,53.5C 88.1667,53.6667 93.3333,53.8333 98.5,54C 88.3312,55.4741 77.9979,55.9741 67.5,55.5 Z"/></g>
<g><path style="opacity:1" fill="#1b1d10" d="M 101.5,46.5 C 106.335,48.753 110.669,51.753 114.5,55.5C 113.062,58.8229 111.229,59.1562 109,56.5C 108.754,60.0047 107.254,62.6714 104.5,64.5C 103.711,64.2172 103.044,63.7172 102.5,63C 108.045,60.8639 108.712,57.6973 104.5,53.5C 104.833,53.1667 105.167,52.8333 105.5,52.5C 107.228,54.2255 109.228,55.5589 111.5,56.5C 111.833,56.1667 112.167,55.8333 112.5,55.5C 108.619,52.731 104.952,49.731 101.5,46.5 Z"/></g>
<g><path style="opacity:1" fill="#040402" d="M 60.5,62.5 C 62.9327,62.7856 62.9327,63.4523 60.5,64.5C 59.4937,63.6043 59.4937,62.9377 60.5,62.5 Z"/></g>
<g><path style="opacity:1" fill="#0e0d08" d="M 68.5,61.5 C 78.1667,61.5 87.8333,61.5 97.5,61.5C 97.5,62.8333 97.5,64.1667 97.5,65.5C 87.8276,65.6665 78.1609,65.4998 68.5,65C 67.3157,63.8545 67.3157,62.6879 68.5,61.5 Z"/></g>
<g><path style="opacity:1" fill="#185b2a" d="M 69.5,62.5 C 78.5246,62.1685 87.5246,62.5018 96.5,63.5C 92,63.8333 87.5,64.1667 83,64.5C 78.1139,64.4927 73.6139,63.8261 69.5,62.5 Z"/></g>
<g><path style="opacity:1" fill="#222514" d="M 60.5,64.5 C 59.3087,69.1177 60.9754,71.6177 65.5,72C 64.9558,72.7172 64.2891,73.2172 63.5,73.5C 59.7023,72.2473 58.2023,69.5806 59,65.5C 59.3826,64.944 59.8826,64.6107 60.5,64.5 Z"/></g>
<g><path style="opacity:1" fill="#e0a11d" d="M 42.5,73.5 C 46.3021,77.2371 50.6355,80.2371 55.5,82.5C 55.9731,83.9063 56.9731,84.573 58.5,84.5C 62.3021,88.2371 66.6355,91.2371 71.5,93.5C 71.5299,94.4972 71.0299,95.1639 70,95.5C 67.5668,93.8623 65.0668,92.6956 62.5,92C 66.6861,95.9091 66.3527,99.4091 61.5,102.5C 63.6585,104.954 63.9918,107.621 62.5,110.5C 61.0222,110.238 59.6888,110.571 58.5,111.5C 61.4399,113.645 62.1066,116.311 60.5,119.5C 48.2166,120.46 35.8833,120.794 23.5,120.5C 22.3146,119.143 21.3146,117.643 20.5,116C 21.2887,114.374 22.2887,112.874 23.5,111.5C 18.328,109.799 17.328,106.799 20.5,102.5C 15.6473,99.4091 15.3139,95.9091 19.5,92C 17.0348,92.5654 14.7015,93.732 12.5,95.5C 11.4376,94.5754 11.4376,93.5754 12.5,92.5C 22.5175,86.1402 32.5175,79.8068 42.5,73.5 Z"/></g>
<g><path style="opacity:1" fill="#0d0c07" d="M 70.5,70.5 C 78.5069,70.3336 86.5069,70.5003 94.5,71C 95.8333,72 95.8333,73 94.5,74C 86.5069,74.4997 78.5069,74.6664 70.5,74.5C 70.5,73.1667 70.5,71.8333 70.5,70.5 Z"/></g>
<g><path style="opacity:1" fill="#185c2a" d="M 71.5,71.5 C 78.8635,71.1694 86.1968,71.5027 93.5,72.5C 89.8333,72.8333 86.1667,73.1667 82.5,73.5C 78.4348,73.4888 74.7681,72.8222 71.5,71.5 Z"/></g>
<g><path style="opacity:1" fill="#e0a01d" d="M 125.5,73.5 C 129.302,77.2371 133.635,80.2371 138.5,82.5C 138.973,83.9063 139.973,84.573 141.5,84.5C 145.302,88.2371 149.635,91.2371 154.5,93.5C 154.53,94.4972 154.03,95.1639 153,95.5C 150.567,93.8623 148.067,92.6956 145.5,92C 149.686,95.9091 149.353,99.4091 144.5,102.5C 146.659,104.954 146.992,107.621 145.5,110.5C 144.022,110.238 142.689,110.571 141.5,111.5C 144.44,113.645 145.107,116.311 143.5,119.5C 131.217,120.46 118.883,120.794 106.5,120.5C 105.315,119.143 104.315,117.643 103.5,116C 104.289,114.374 105.289,112.874 106.5,111.5C 101.328,109.799 100.328,106.799 103.5,102.5C 98.6473,99.4091 98.3139,95.9091 102.5,92C 100.035,92.5654 97.7015,93.732 95.5,95.5C 94.4376,94.5754 94.4376,93.5754 95.5,92.5C 105.518,86.1402 115.518,79.8068 125.5,73.5 Z"/></g>
<g><path style="opacity:1" fill="#1a1e12" d="M 42.5,73.5 C 47.3645,75.7629 51.6979,78.7629 55.5,82.5C 50.6355,80.2371 46.3021,77.2371 42.5,73.5 Z"/></g>
<g><path style="opacity:1" fill="#1a1e12" d="M 125.5,73.5 C 130.365,75.7629 134.698,78.7629 138.5,82.5C 133.635,80.2371 129.302,77.2371 125.5,73.5 Z"/></g>
<g><path style="opacity:1" fill="#141c10" d="M 62.5,79.5 C 63.4734,79.9867 64.4734,80.4867 65.5,81C 76.8333,81.6667 88.1667,81.6667 99.5,81C 103.424,78.1816 103.424,75.1816 99.5,72C 103.266,72.0663 105.266,70.233 105.5,66.5C 106.612,66.4857 106.779,67.4857 106,69.5C 105.5,71.3333 104.333,72.5 102.5,73C 105.359,76.7605 104.692,79.7605 100.5,82C 88.5,82.6667 76.5,82.6667 64.5,82C 63.244,81.5831 62.5774,80.7498 62.5,79.5 Z"/></g>
<g><path style="opacity:1" fill="#191e11" d="M 58.5,84.5 C 63.3645,86.7629 67.6979,89.7629 71.5,93.5C 66.6355,91.2371 62.3021,88.2371 58.5,84.5 Z"/></g>
<g><path style="opacity:1" fill="#191e11" d="M 141.5,84.5 C 146.365,86.7629 150.698,89.7629 154.5,93.5C 149.635,91.2371 145.302,88.2371 141.5,84.5 Z"/></g>
<g><path style="opacity:1" fill="#0c170c" d="M 139.5,94.5 C 134.712,93.1721 129.546,92.5054 124,92.5C 118.454,92.5054 113.288,93.1721 108.5,94.5C 107.596,93.791 107.263,92.791 107.5,91.5C 118.5,91.5 129.5,91.5 140.5,91.5C 140.737,92.791 140.404,93.791 139.5,94.5 Z"/></g>
<g><path style="opacity:1" fill="#20341a" d="M 24.5,91.5 C 35.9956,91.0235 47.3289,91.5235 58.5,93C 58.0426,93.414 57.7093,93.914 57.5,94.5C 46.8489,95.6657 36.1823,95.8324 25.5,95C 24.6634,93.9887 24.33,92.8221 24.5,91.5 Z"/></g>
<g><path style="opacity:1" fill="#233c1d" d="M 139.5,94.5 C 129.167,95.8333 118.833,95.8333 108.5,94.5C 113.288,93.1721 118.454,92.5054 124,92.5C 129.546,92.5054 134.712,93.1721 139.5,94.5 Z"/></g>
<g><path style="opacity:1" fill="#1b1d12" d="M 71.5,93.5 C 72.9485,96.7193 71.9485,97.7193 68.5,96.5C 67.1966,98.9371 65.5299,101.104 63.5,103C 66.0775,105.975 65.7442,108.475 62.5,110.5C 63.9918,107.621 63.6585,104.954 61.5,102.5C 66.3527,99.4091 66.6861,95.9091 62.5,92C 65.0668,92.6956 67.5668,93.8623 70,95.5C 71.0299,95.1639 71.5299,94.4972 71.5,93.5 Z"/></g>
<g><path style="opacity:1" fill="#1b1d12" d="M 154.5,93.5 C 155.948,96.7193 154.948,97.7193 151.5,96.5C 150.197,98.9371 148.53,101.104 146.5,103C 149.078,105.975 148.744,108.475 145.5,110.5C 146.992,107.621 146.659,104.954 144.5,102.5C 149.353,99.4091 149.686,95.9091 145.5,92C 148.067,92.6956 150.567,93.8623 153,95.5C 154.03,95.1639 154.53,94.4972 154.5,93.5 Z"/></g>
<g><path style="opacity:1" fill="#110f0a" d="M 26.5,100.5 C 36.1724,100.334 45.8391,100.5 55.5,101C 56.8333,102 56.8333,103 55.5,104C 45.8391,104.5 36.1724,104.666 26.5,104.5C 26.5,103.167 26.5,101.833 26.5,100.5 Z"/></g>
<g><path style="opacity:1" fill="#185b2a" d="M 27.5,101.5 C 36.5246,101.168 45.5246,101.502 54.5,102.5C 50,102.833 45.5,103.167 41,103.5C 36.1139,103.493 31.6139,102.826 27.5,101.5 Z"/></g>
<g><path style="opacity:1" fill="#0f0d08" d="M 109.5,100.5 C 119.167,100.5 128.833,100.5 138.5,100.5C 138.5,101.833 138.5,103.167 138.5,104.5C 128.833,104.5 119.167,104.5 109.5,104.5C 109.5,103.167 109.5,101.833 109.5,100.5 Z"/></g>
<g><path style="opacity:1" fill="#185c2a" d="M 110.5,101.5 C 119.525,101.168 128.525,101.502 137.5,102.5C 133,102.833 128.5,103.167 124,103.5C 119.114,103.493 114.614,102.826 110.5,101.5 Z"/></g>
<g><path style="opacity:1" fill="#19190f" d="M 23.5,120.5 C 19.8539,119.538 18.6872,117.205 20,113.5C 20.5,113 21,112.5 21.5,112C 17.5559,110.035 16.5559,107.035 18.5,103C 16.114,101.113 14.9473,98.6127 15,95.5C 12.4581,98.3865 10.6247,98.0531 9.5,94.5C 10.0047,93.0815 11.0047,92.4148 12.5,92.5C 11.4376,93.5754 11.4376,94.5754 12.5,95.5C 14.7015,93.732 17.0348,92.5654 19.5,92C 15.3139,95.9091 15.6473,99.4091 20.5,102.5C 17.328,106.799 18.328,109.799 23.5,111.5C 22.2887,112.874 21.2887,114.374 20.5,116C 21.3146,117.643 22.3146,119.143 23.5,120.5 Z"/></g>
<g><path style="opacity:1" fill="#19190f" d="M 106.5,120.5 C 102.854,119.538 101.687,117.205 103,113.5C 103.5,113 104,112.5 104.5,112C 100.556,110.035 99.5559,107.035 101.5,103C 99.114,101.113 97.9473,98.6127 98,95.5C 95.4581,98.3865 93.6247,98.0531 92.5,94.5C 93.0047,93.0815 94.0047,92.4148 95.5,92.5C 94.4376,93.5754 94.4376,94.5754 95.5,95.5C 97.7015,93.732 100.035,92.5654 102.5,92C 98.3139,95.9091 98.6473,99.4091 103.5,102.5C 100.328,106.799 101.328,109.799 106.5,111.5C 105.289,112.874 104.289,114.374 103.5,116C 104.315,117.643 105.315,119.143 106.5,120.5 Z"/></g>
<g><path style="opacity:1" fill="#292213" d="M 62.5,110.5 C 62.0825,111.222 61.4158,111.722 60.5,112C 63.1402,114.621 63.1402,117.121 60.5,119.5C 62.1066,116.311 61.4399,113.645 58.5,111.5C 59.6888,110.571 61.0222,110.238 62.5,110.5 Z"/></g>
<g><path style="opacity:1" fill="#185829" d="M 112.5,110.5 C 143.167,111.167 143.167,111.833 112.5,112.5C 111.167,111.833 111.167,111.167 112.5,110.5 Z"/></g>
<g><path style="opacity:1" fill="#292213" d="M 145.5,110.5 C 145.082,111.222 144.416,111.722 143.5,112C 146.14,114.621 146.14,117.121 143.5,119.5C 145.107,116.311 144.44,113.645 141.5,111.5C 142.689,110.571 144.022,110.238 145.5,110.5 Z"/></g>
<g><path style="opacity:1" fill="#0d0c07" d="M 29.5,110.5 C 37.3159,109.508 45.3159,109.174 53.5,109.5C 53.5,110.833 53.5,112.167 53.5,113.5C 45.4931,113.666 37.4931,113.5 29.5,113C 28.2264,112.023 28.2264,111.189 29.5,110.5 Z"/></g>
<g><path style="opacity:1" fill="#185b2a" d="M 29.5,110.5 C 37.1955,110.169 44.8622,110.503 52.5,111.5C 45.1893,112.665 37.856,112.831 30.5,112C 29.944,111.617 29.6107,111.117 29.5,110.5 Z"/></g>
<g><path style="opacity:1" fill="#0d0a06" d="M 112.5,110.5 C 120.316,109.508 128.316,109.174 136.5,109.5C 136.5,110.833 136.5,112.167 136.5,113.5C 128.316,113.826 120.316,113.492 112.5,112.5C 143.167,111.833 143.167,111.167 112.5,110.5 Z"/></g>
<g><path style="opacity:1" fill="#fdfdfd" d="M -0.5,117.5 C 6.9271,158.261 30.9271,182.927 71.5,191.5C 47.5,191.5 23.5,191.5 -0.5,191.5C -0.5,166.833 -0.5,142.167 -0.5,117.5 Z"/></g>
<g><path style="opacity:1" fill="#0e1a0e" d="M 60.5,119.5 C 60.3893,120.117 60.056,120.617 59.5,121C 47.3262,121.826 35.3262,121.66 23.5,120.5C 35.8833,120.794 48.2166,120.46 60.5,119.5 Z"/></g>
<g><path style="opacity:1" fill="#0e1a0e" d="M 143.5,119.5 C 143.389,120.117 143.056,120.617 142.5,121C 130.326,121.826 118.326,121.66 106.5,120.5C 118.883,120.794 131.217,120.46 143.5,119.5 Z"/></g>
<g><path style="opacity:1" fill="#fdfdfd" d="M 165.5,119.5 C 165.5,143.5 165.5,167.5 165.5,191.5C 141.167,191.5 116.833,191.5 92.5,191.5C 132.705,183.629 157.038,159.629 165.5,119.5 Z"/></g>
</svg>

<svg xmlns="http://www.w3.org/2000/svg" width="166" height="192" style="shape-rendering:geometricPrecision;text-rendering:geometricPrecision;image-rendering:optimizeQuality;fill-rule:evenodd;clip-rule:evenodd"><path style="opacity:1" fill="#060805" d="M-.5-.5h166v120c-8.462 40.129-32.795 64.129-73 72h-21c-40.573-8.573-64.573-33.239-72-74V-.5z"/><path style="opacity:1" fill="#185b2a" d="M3.5 3.5h158c.167 38.335 0 76.668-.5 115-5.545 33.913-24.712 56.079-57.5 66.5-43.334 8.082-74.834-7.418-94.5-46.5a92.996 92.996 0 0 1-5-22c-.5-37.665-.667-75.332-.5-113z"/><path style="opacity:1" fill="#e0a01d" d="M85.5 35.5c2.775 3.105 6.108 5.438 10 7 1.647 1.826 3.647 3.16 6 4a107.127 107.127 0 0 0 11 9l-1 1a18.34 18.34 0 0 1-6-4l-1 1c4.212 4.197 3.545 7.364-2 9.5.544.717 1.211 1.217 2 1.5-.172.992.162 1.658 1 2-.234 3.733-2.234 5.566-6 5.5 3.924 3.182 3.924 6.182 0 9a289.236 289.236 0 0 1-34 0l-3-1.5c-.175-2.12.159-4.12 1-6 .79-.283 1.456-.783 2-1.5-4.525-.382-6.191-2.882-5-7.5 2.433-1.048 2.433-1.714 0-2-.342-.838-1.008-1.172-2-1a14.076 14.076 0 0 0-1-3.5c1.427-1.7 2.26-3.533 2.5-5.5a40.854 40.854 0 0 1-6.5 4c-.797-.457-1.13-1.124-1-2a341.637 341.637 0 0 0 29-19.5c1.32-.195 2.653-.028 4 .5z"/><path style="opacity:1" fill="#1b1f12" d="M85.5 35.5c3.892 1.562 7.225 3.895 10 7-3.892-1.562-7.225-3.895-10-7z"/><path style="opacity:1" fill="#1c1e11" d="M67.5 55.5c-.904-.709-1.237-1.709-1-3h33c.17 1.322-.163 2.489-1 3.5-10.508.825-20.842.658-31-.5z"/><path style="opacity:1" fill="#1a1c11" d="M58.5 61.5c-1.567-1.18-2.4-2.847-2.5-5-2.492 2.69-4.325 2.19-5.5-1.5a2.428 2.428 0 0 1 2-.5c-.13.876.203 1.543 1 2a40.854 40.854 0 0 0 6.5-4c-.24 1.967-1.073 3.8-2.5 5.5.49 1.139.822 2.305 1 3.5z"/><path style="opacity:1" fill="#174120" d="M67.5 55.5c4.788-1.328 9.954-1.995 15.5-2l15.5.5c-10.169 1.474-20.502 1.974-31 1.5z"/><path style="opacity:1" fill="#1b1d10" d="M101.5 46.5a46.638 46.638 0 0 1 13 9c-1.438 3.323-3.271 3.656-5.5 1-.246 3.505-1.746 6.171-4.5 8-.789-.283-1.456-.783-2-1.5 5.545-2.136 6.212-5.303 2-9.5l1-1a18.34 18.34 0 0 0 6 4l1-1a107.127 107.127 0 0 1-11-9z"/><path style="opacity:1" fill="#040402" d="M60.5 62.5c2.433.286 2.433.952 0 2-1.006-.896-1.006-1.562 0-2z"/><path style="opacity:1" fill="#0e0d08" d="M68.5 61.5h29v4c-9.672.166-19.34 0-29-.5-1.184-1.145-1.184-2.312 0-3.5z"/><path style="opacity:1" fill="#185b2a" d="M69.5 62.5c9.025-.331 18.025.002 27 1l-13.5 1c-4.886-.007-9.386-.674-13.5-2z"/><path style="opacity:1" fill="#222514" d="M60.5 64.5c-1.191 4.618.475 7.118 5 7.5-.544.717-1.21 1.217-2 1.5-3.798-1.253-5.298-3.92-4.5-8 .383-.556.883-.89 1.5-1z"/><path style="opacity:1" fill="#e0a11d" d="M42.5 73.5a46.209 46.209 0 0 0 13 9c.473 1.406 1.473 2.073 3 2a46.209 46.209 0 0 0 13 9c.03.997-.47 1.664-1.5 2-2.433-1.638-4.933-2.804-7.5-3.5 4.186 3.91 3.853 7.41-1 10.5 2.158 2.454 2.492 5.121 1 8-1.478-.262-2.811.071-4 1 2.94 2.145 3.607 4.811 2 8a363.753 363.753 0 0 1-37 1 20.958 20.958 0 0 1-3-4.5 19.933 19.933 0 0 1 3-4.5c-5.172-1.701-6.172-4.701-3-9-4.853-3.09-5.186-6.59-1-10.5-2.465.565-4.799 1.732-7 3.5-1.062-.925-1.062-1.925 0-3 10.017-6.36 20.017-12.693 30-19z"/><path style="opacity:1" fill="#0d0c07" d="M70.5 70.5c8.007-.166 16.007 0 24 .5 1.333 1 1.333 2 0 3-7.993.5-15.993.666-24 .5v-4z"/><path style="opacity:1" fill="#185c2a" d="M71.5 71.5a121.87 121.87 0 0 1 22 1l-11 1c-4.065-.011-7.732-.678-11-2z"/><path style="opacity:1" fill="#e0a01d" d="M125.5 73.5a46.2 46.2 0 0 0 13 9c.473 1.406 1.473 2.073 3 2a46.2 46.2 0 0 0 13 9c.03.997-.47 1.664-1.5 2-2.433-1.638-4.933-2.804-7.5-3.5 4.186 3.91 3.853 7.41-1 10.5 2.159 2.454 2.492 5.121 1 8-1.478-.262-2.811.071-4 1 2.94 2.145 3.607 4.811 2 8a363.752 363.752 0 0 1-37 1 20.987 20.987 0 0 1-3-4.5 19.953 19.953 0 0 1 3-4.5c-5.172-1.701-6.172-4.701-3-9-4.853-3.09-5.186-6.59-1-10.5-2.465.565-4.799 1.732-7 3.5-1.062-.925-1.062-1.925 0-3 10.018-6.36 20.018-12.693 30-19z"/><path style="opacity:1" fill="#1a1e12" d="M42.5 73.5a46.209 46.209 0 0 1 13 9 46.209 46.209 0 0 1-13-9zM125.5 73.5a46.2 46.2 0 0 1 13 9 46.2 46.2 0 0 1-13-9z"/><path style="opacity:1" fill="#141c10" d="m62.5 79.5 3 1.5c11.333.667 22.667.667 34 0 3.924-2.818 3.924-5.818 0-9 3.766.066 5.766-1.767 6-5.5 1.112-.014 1.279.986.5 3-.5 1.833-1.667 3-3.5 3.5 2.859 3.76 2.192 6.76-2 9-12 .667-24 .667-36 0-1.256-.417-1.923-1.25-2-2.5z"/><path style="opacity:1" fill="#191e11" d="M58.5 84.5a46.209 46.209 0 0 1 13 9 46.209 46.209 0 0 1-13-9zM141.5 84.5a46.2 46.2 0 0 1 13 9 46.2 46.2 0 0 1-13-9z"/><path style="opacity:1" fill="#0c170c" d="M139.5 94.5c-4.788-1.328-9.954-1.995-15.5-2-5.546.005-10.712.672-15.5 2-.904-.709-1.237-1.709-1-3h33c.237 1.291-.096 2.291-1 3z"/><path style="opacity:1" fill="#20341a" d="M24.5 91.5c11.496-.477 22.829.023 34 1.5-.457.414-.79.914-1 1.5a171.225 171.225 0 0 1-32 .5c-.837-1.011-1.17-2.178-1-3.5z"/><path style="opacity:1" fill="#233c1d" d="M139.5 94.5a120.628 120.628 0 0 1-31 0c4.788-1.328 9.954-1.995 15.5-2 5.546.005 10.712.672 15.5 2z"/><path style="opacity:1" fill="#1b1d12" d="M71.5 93.5c1.448 3.22.448 4.22-3 3a24.919 24.919 0 0 1-5 6.5c2.578 2.975 2.244 5.475-1 7.5 1.492-2.879 1.158-5.546-1-8 4.853-3.09 5.186-6.59 1-10.5 2.567.696 5.067 1.862 7.5 3.5 1.03-.336 1.53-1.003 1.5-2zM154.5 93.5c1.448 3.22.448 4.22-3 3a24.908 24.908 0 0 1-5 6.5c2.578 2.975 2.244 5.475-1 7.5 1.492-2.879 1.159-5.546-1-8 4.853-3.09 5.186-6.59 1-10.5 2.567.696 5.067 1.862 7.5 3.5 1.03-.336 1.53-1.003 1.5-2z"/><path style="opacity:1" fill="#110f0a" d="M26.5 100.5c9.672-.166 19.34 0 29 .5 1.333 1 1.333 2 0 3-9.66.5-19.328.666-29 .5v-4z"/><path style="opacity:1" fill="#185b2a" d="M27.5 101.5c9.025-.332 18.025.002 27 1l-13.5 1c-4.886-.007-9.386-.674-13.5-2z"/><path style="opacity:1" fill="#0f0d08" d="M109.5 100.5h29v4h-29v-4z"/><path style="opacity:1" fill="#185c2a" d="M110.5 101.5c9.025-.332 18.025.002 27 1l-13.5 1c-4.886-.007-9.386-.674-13.5-2z"/><path style="opacity:1" fill="#19190f" d="M23.5 120.5c-3.646-.962-4.813-3.295-3.5-7l1.5-1.5c-3.944-1.965-4.944-4.965-3-9-2.386-1.887-3.553-4.387-3.5-7.5-2.542 2.886-4.375 2.553-5.5-1 .505-1.418 1.505-2.085 3-2-1.062 1.075-1.062 2.075 0 3 2.201-1.768 4.535-2.935 7-3.5-4.186 3.91-3.853 7.41 1 10.5-3.172 4.299-2.172 7.299 3 9a19.933 19.933 0 0 0-3 4.5 20.958 20.958 0 0 0 3 4.5zM106.5 120.5c-3.646-.962-4.813-3.295-3.5-7l1.5-1.5c-3.944-1.965-4.944-4.965-3-9-2.386-1.887-3.553-4.387-3.5-7.5-2.542 2.886-4.375 2.553-5.5-1 .505-1.418 1.505-2.085 3-2-1.062 1.075-1.062 2.075 0 3 2.201-1.768 4.535-2.935 7-3.5-4.186 3.91-3.853 7.41 1 10.5-3.172 4.299-2.172 7.299 3 9a19.953 19.953 0 0 0-3 4.5 20.987 20.987 0 0 0 3 4.5z"/><path style="opacity:1" fill="#292213" d="M62.5 110.5c-.417.722-1.084 1.222-2 1.5 2.64 2.621 2.64 5.121 0 7.5 1.607-3.189.94-5.855-2-8 1.189-.929 2.522-1.262 4-1z"/><path style="opacity:1" fill="#185829" d="M112.5 110.5c30.667.667 30.667 1.333 0 2-1.333-.667-1.333-1.333 0-2z"/><path style="opacity:1" fill="#292213" d="M145.5 110.5c-.418.722-1.084 1.222-2 1.5 2.64 2.621 2.64 5.121 0 7.5 1.607-3.189.94-5.855-2-8 1.189-.929 2.522-1.262 4-1z"/><path style="opacity:1" fill="#0d0c07" d="M29.5 110.5c7.816-.992 15.816-1.326 24-1v4c-8.007.166-16.007 0-24-.5-1.274-.977-1.274-1.811 0-2.5z"/><path style="opacity:1" fill="#185b2a" d="M29.5 110.5c7.696-.331 15.362.003 23 1a81.224 81.224 0 0 1-22 .5c-.556-.383-.89-.883-1-1.5z"/><path style="opacity:1" fill="#0d0a06" d="M112.5 110.5c7.816-.992 15.816-1.326 24-1v4c-8.184.326-16.184-.008-24-1 30.667-.667 30.667-1.333 0-2z"/><path style="opacity:1" fill="#fdfdfd" d="M-.5 117.5c7.427 40.761 31.427 65.427 72 74h-72v-74z"/><path style="opacity:1" fill="#0e1a0e" d="M60.5 119.5c-.11.617-.444 1.117-1 1.5-12.174.826-24.174.66-36-.5 12.383.294 24.717-.04 37-1zM143.5 119.5c-.111.617-.444 1.117-1 1.5-12.174.826-24.174.66-36-.5 12.383.294 24.717-.04 37-1z"/><path style="opacity:1" fill="#fdfdfd" d="M165.5 119.5v72h-73c40.205-7.871 64.538-31.871 73-72z"/></svg>
